!! 00013] TT[TB
!! Zh. Ch. 1-3166, 590615)   , J 3484)
!!!OTL: Kaihua diao   , vgl. Kopie)
!!!ARE: Asia, China, Shanxi, Zuoqian
!! Ethnic Group: Han
!! MM, !
!!!SCT: C0644
!!!YEM: Copyright 1995, estate of Helmut Schaffrath.
**kern
*ICvox
*Ivox
*M2/4
*k[f#c#g#]
*A:
{8bb
16bb
16bb
8aa
8bb
=1
4eee
8.aaa
16ccc#
=2
8bb
16bb
16bb
8aa
8gg#
=3
8ff#
4.ee}
=4
{8.aa
16bb
8ccc#
8ccc#
=5
8bb
16ccc#
16bb
8.aa
16aa
=6
16cc#
8ee
16ff#
16gg#
16bb
8gg#
=7
8ff#
4.ee}
==
!!!AGN: Xiaodiao, Kaihua diao. Biaoda aiqing
!! DOUBLETTE VON CUT 5
!!    Kein Grundton angegeben. Wenig Verzierungen. Vorspiel weggelassen.
!!!ONB: ESAC (Essen Associative Code) Database: CHINA
!!!AMT: simple duple
!!!AIN: vox
!!!EED: Helmut Schaffrath
!!!EEV: 1.0
*-
